lib/svgs/task-id.svg

<?xml version="1.0" encoding="UTF-8"?>
<svg width="16px" height="16px" viewBox="0 0 16 16" version="1.1" xmlns="http://www.w3.org/2000/svg" xmlns:xlink="http://www.w3.org/1999/xlink">
    <!-- Generator: sketchtool 51.3 (57544) - http://www.bohemiancoding.com/sketch -->
    <title>task-id</title>
    <desc>Created with sketchtool.</desc>
    <defs></defs>
    <g id="Icons" stroke="none" stroke-width="1" fill="none" fill-rule="evenodd">
        <g id="Deprecated" transform="translate(-364.000000, -329.000000)" fill="#000000" fill-rule="nonzero">
            <g id="task-id" transform="translate(364.000000, 329.000000)">
                <path d="M3.527152,8.4494174 L5.67520583,10.545714 L10.4295096,6.01993241 C10.6561752,5.80416182 11.0191592,5.80856654 11.2402572,6.02977063 C11.4613551,6.25097471 11.4568416,6.60521268 11.230176,6.82098326 L6.07052943,11.7326243 C5.84585413,11.9465003 5.48672417,11.9443214 5.2647911,11.7277358 L2.71634177,9.2406912 C2.49244271,9.02218697 2.49244271,8.66792162 2.71634177,8.4494174 C2.94024083,8.23091317 3.30325294,8.23091317 3.527152,8.4494174 Z M12.1039399,13.8809699 L12.1039399,6.66913121 C12.1039399,6.36011957 12.3606282,6.10961614 12.6772693,6.10961614 C12.9939104,6.10961614 13.2505987,6.36011957 13.2505987,6.66913121 L13.2505987,14.4404849 C13.2505987,14.7494966 12.9939104,15 12.6772693,15 L0.573329411,15 C0.256688321,15 0,14.7494966 0,14.4404849 L0,2.62818891 C0,2.31917727 0.256688321,2.06867384 0.573329411,2.06867384 L9.49242428,2.06867384 C9.80906537,2.06867384 10.0657537,2.31917727 10.0657537,2.62818891 C10.0657537,2.93720054 9.80906537,3.18770397 9.49242428,3.18770397 L1.14665882,3.18770397 L1.14665882,13.8809699 L12.1039399,13.8809699 Z M10.789391,1.09325251 L10.8849459,1 L11.7350661,1 L11.830621,1.09325251 L11.830621,4.86624926 L11.7350661,4.95950177 L10.8849459,4.95950177 L10.789391,4.86624926 L10.789391,1.09325251 Z M12.3867505,1.09325251 L12.4823054,1 L14.150057,1 C14.4102156,1 14.6533618,1.04062511 14.8789945,1.12204217 C15.1068042,1.20424475 15.3046129,1.32794191 15.4715306,1.4927101 C15.6384332,1.65746331 15.7683494,1.86255822 15.8613649,2.10709309 C15.9540178,2.35067458 16,2.63457289 16,2.95861365 C16,3.24229413 15.9626081,3.50502865 15.8875979,3.74659809 C15.8117179,3.99096861 15.6963791,4.20306468 15.5415873,4.38210125 C15.3861065,4.56193465 15.1923247,4.70330106 14.9612038,4.80582472 C14.7296523,4.90853938 14.4590544,4.95950177 14.150057,4.95950177 L12.4823054,4.95950177 L12.3867505,4.86624926 L12.3867505,1.09325251 Z M14.0904945,4.07546793 C14.2026728,4.07546793 14.3112992,4.05779975 14.4168069,4.02240539 C14.5180749,3.98843326 14.6082882,3.93205702 14.688279,3.85243234 C14.7684811,3.77259735 14.8336687,3.66683411 14.8833655,3.53426936 C14.9333329,3.40098257 14.95877,3.23548769 14.95877,3.03787829 C14.95877,2.85470023 14.9406229,2.6902514 14.9045826,2.54453896 C14.8697438,2.40368469 14.8131816,2.28448599 14.7351024,2.1860638 C14.6588327,2.08992245 14.5576573,2.01606366 14.4299904,1.96401941 C14.3000921,1.91106553 14.1364157,1.88403384 13.9388807,1.88403384 L13.4279805,1.88403384 L13.4279805,4.07546793 L14.0904945,4.07546793 Z"></path>
            </g>
        </g>
    </g>
</svg>

<svg xmlns="http://www.w3.org/2000/svg" viewBox="0 0 16 16">
    <path d="M3.527 8.45l2.148 2.096L10.43 6.02a.583.583 0 0 1 .81.01.55.55 0 0 1-.01.791l-5.16 4.912a.583.583 0 0 1-.805-.005L2.716 9.24a.55.55 0 0 1 0-.792.583.583 0 0 1 .811 0zm8.577 5.431V6.669c0-.309.257-.56.573-.56.317 0 .574.251.574.56v7.771c0 .31-.257.56-.574.56H.573A.567.567 0 0 1 0 14.44V2.628c0-.309.257-.56.573-.56h8.92c.316 0 .573.251.573.56 0 .31-.257.56-.574.56H1.147V13.88h10.957zM10.789 1.093L10.885 1h.85l.096.093v3.773l-.096.094h-.85l-.096-.094V1.093zm1.598 0L12.482 1h1.668c.26 0 .503.04.729.122a1.61 1.61 0 0 1 .982.985c.093.244.139.528.139.852 0 .283-.037.546-.112.788a1.628 1.628 0 0 1-.926 1.06 1.986 1.986 0 0 1-.812.153h-1.668l-.095-.094V1.093zm1.703 2.982c.113 0 .221-.017.327-.053a.693.693 0 0 0 .271-.17.874.874 0 0 0 .195-.318 2.06 2.06 0 0 0 .021-.99.925.925 0 0 0-.169-.358.732.732 0 0 0-.305-.222 1.31 1.31 0 0 0-.491-.08h-.511v2.191h.662z"/>
</svg>
